svg/media/airpods_line.svg

<?xml version="1.0" encoding="UTF-8"?>
<svg width="24px" height="24px" viewBox="0 0 24 24" version="1.1" xmlns="http://www.w3.org/2000/svg" xmlns:xlink="http://www.w3.org/1999/xlink">
    <title>airpods_line</title>
    <g id="Icon" stroke="none" stroke-width="1" fill="none" fill-rule="evenodd">
        <g id="Media" transform="translate(-144.000000, -192.000000)">
            <g id="airpods_line" transform="translate(144.000000, 192.000000)">
                <path d="M24,0 L24,24 L0,24 L0,0 L24,0 Z M12.5934901,23.257841 L12.5819402,23.2595131 L12.5108777,23.2950439 L12.4918791,23.2987469 L12.4918791,23.2987469 L12.4767152,23.2950439 L12.4056548,23.2595131 C12.3958229,23.2563662 12.3870493,23.2590235 12.3821421,23.2649074 L12.3780323,23.275831 L12.360941,23.7031097 L12.3658947,23.7234994 L12.3769048,23.7357139 L12.4804777,23.8096931 L12.4953491,23.8136134 L12.4953491,23.8136134 L12.5071152,23.8096931 L12.6106902,23.7357139 L12.6232938,23.7196733 L12.6232938,23.7196733 L12.6266527,23.7031097 L12.609561,23.275831 C12.6075724,23.2657013 12.6010112,23.2592993 12.5934901,23.257841 L12.5934901,23.257841 Z M12.8583906,23.1452862 L12.8445485,23.1473072 L12.6598443,23.2396597 L12.6498822,23.2499052 L12.6498822,23.2499052 L12.6471943,23.2611114 L12.6650943,23.6906389 L12.6699349,23.7034178 L12.6699349,23.7034178 L12.678386,23.7104931 L12.8793402,23.8032389 C12.8914285,23.8068999 12.9022333,23.8029875 12.9078286,23.7952264 L12.9118235,23.7811639 L12.8776777,23.1665331 C12.8752882,23.1545897 12.8674102,23.1470016 12.8583906,23.1452862 L12.8583906,23.1452862 Z M12.1430473,23.1473072 C12.1332178,23.1423925 12.1221763,23.1452606 12.1156365,23.1525954 L12.1099173,23.1665331 L12.0757714,23.7811639 C12.0751323,23.7926639 12.0828099,23.8018602 12.0926481,23.8045676 L12.108256,23.8032389 L12.3092106,23.7104931 L12.3186497,23.7024347 L12.3186497,23.7024347 L12.3225043,23.6906389 L12.340401,23.2611114 L12.337245,23.2485176 L12.337245,23.2485176 L12.3277531,23.2396597 L12.1430473,23.1473072 Z" id="MingCute" fill-rule="nonzero"></path>
                <path d="M6.5,4 C4.01472,4 2,6.01472 2,8.5 C2,10.8163 3.75003,12.7238 6,12.9725 L6,17.4999 C6,18.8807 7.11929,19.9999 8.5,19.9999 C9.88072,19.9999 11,18.8807 11,17.4999 L11,8.49994 C11,6.01469 8.98526,4 6.5,4 Z M4,8.5 C4,7.11929 5.11929,6 6.5,6 C7.88069,6 9,7.11926 9,8.49994 L9,17.4999 C9,17.7761 8.77615,17.9999 8.5,17.9999 C8.22386,17.9999 8,17.7761 8,17.4999 L8,11.9646 C8,11.6746 7.87418,11.399 7.65514,11.209 C7.4361,11.0191 7.14541,10.9336 6.85841,10.9746 C6.74186,10.9913 6.62224,11 6.5,11 C5.11929,11 4,9.88071 4,8.5 Z M17.5,4 C15.0147,4 13,6.01468 13,8.49993 L13,17.4999 C13,18.8807 14.1193,19.9999 15.5,19.9999 C16.8807,19.9999 18,18.8807 18,17.4999 L18,12.9725 C20.25,12.7238 22,10.8163 22,8.5 C22,6.01472 19.9853,4 17.5,4 Z M15,8.49994 C15,7.11926 16.1193,6 17.5,6 C18.8807,6 20,7.11929 20,8.5 C20,9.88071 18.8807,11 17.5,11 C17.3778,11 17.2581,10.9913 17.1416,10.9746 C16.8546,10.9336 16.5639,11.0191 16.3449,11.209 C16.1258,11.399 16,11.6746 16,11.9646 L16,17.4999 C16,17.7761 15.7761,17.9999 15.5,17.9999 C15.2239,17.9999 15,17.7761 15,17.4999 L15,8.49994 Z" id="形状" fill="#09244B"></path>
            </g>
        </g>
    </g>
</svg>

<svg xmlns="http://www.w3.org/2000/svg" width="24" height="24"><g fill="none" fill-rule="evenodd"><path d="M24 0v24H0V0h24ZM12.593 23.258l-.011.002-.071.035-.02.004-.014-.004-.071-.035c-.01-.004-.019-.001-.024.005l-.004.01-.017.428.005.02.01.013.104.074.015.004.012-.004.104-.074.012-.016.004-.017-.017-.427c-.002-.01-.009-.017-.017-.018Zm.265-.113-.013.002-.185.093-.01.01-.003.011.018.43.005.012.008.007.201.093c.012.004.023 0 .029-.008l.004-.014-.034-.614c-.003-.012-.01-.02-.02-.022Zm-.715.002a.023.023 0 0 0-.027.006l-.006.014-.034.614c0 .012.007.02.017.024l.015-.002.201-.093.01-.008.004-.011.017-.43-.003-.012-.01-.01-.184-.092Z"/><path fill="#09244B" d="M6.5 4a4.5 4.5 0 0 0-.5 8.973V17.5a2.5 2.5 0 1 0 5 0v-9A4.5 4.5 0 0 0 6.5 4ZM4 8.5a2.5 2.5 0 0 1 5 0v9a.5.5 0 1 1-1 0v-5.535a1 1 0 0 0-1.142-.99A2.5 2.5 0 0 1 4 8.5ZM17.5 4A4.5 4.5 0 0 0 13 8.5v9a2.5 2.5 0 1 0 5 0v-4.527A4.5 4.5 0 0 0 17.5 4ZM15 8.5a2.5 2.5 0 1 1 2.142 2.475 1 1 0 0 0-1.142.99V17.5a.5.5 0 1 1-1 0v-9Z"/></g></svg>
